svg/fluentui-system-icons/ic_fluent_snooze_16_regular.svg

<svg width="16" height="16" viewBox="0 0 16 16" fill="none" xmlns="http://www.w3.org/2000/svg">
<path d="M4.00096 8H6.50096C6.89661 8 7.12472 8.4307 6.93273 8.75291L6.88507 8.82009L5.06848 11H6.50096C6.7771 11 7.00096 11.2239 7.00096 11.5C7.00096 11.7455 6.82408 11.9496 6.59083 11.9919L6.50096 12H4.00096C3.6053 12 3.37719 11.5693 3.56918 11.2471L3.61684 11.1799L5.43343 9H4.00096C3.72481 9 3.50096 8.77614 3.50096 8.5C3.50096 8.25454 3.67783 8.05039 3.91108 8.00806L4.00096 8H6.50096H4.00096ZM9.00096 3H12.501C12.8766 3 13.1078 3.39262 12.9532 3.71403L12.9106 3.78673L9.96128 8H12.501C12.7771 8 13.001 8.22386 13.001 8.5C13.001 8.74546 12.8241 8.94961 12.5908 8.99194L12.501 9H9.00096C8.62534 9 8.39409 8.60738 8.5487 8.28597L8.59134 8.21327L11.5406 4H9.00096C8.72481 4 8.50096 3.77614 8.50096 3.5C8.50096 3.25454 8.67783 3.05039 8.91108 3.00806L9.00096 3H12.501H9.00096Z" fill="#212121"/>
</svg>

<svg xmlns="http://www.w3.org/2000/svg" width="16" height="16"><path d="M4.001 8h2.5a.5.5 0 0 1 .432.753l-.048.067L5.068 11h1.433a.5.5 0 0 1 .09.992L6.5 12H4a.5.5 0 0 1-.432-.753l.048-.067L5.433 9H4.001a.5.5 0 0 1-.09-.992L4.001 8h2.5-2.5Zm5-5h3.5a.5.5 0 0 1 .452.714l-.042.073L9.96 8h2.54a.5.5 0 0 1 .09.992L12.5 9H9a.5.5 0 0 1-.452-.714l.042-.073L11.541 4H9a.5.5 0 0 1-.09-.992L9.001 3h3.5-3.5Z"/></svg>
